assets/logos/google-play.svg

<svg width="80" height="80" viewBox="0 0 80 80" fill="none" xmlns="http://www.w3.org/2000/svg">
<path d="M47.6423 27.5003L13.8164 8.17434C13.4023 7.9297 12.8564 7.94852 12.4423 8.19315C12.0282 8.43779 11.7646 8.88942 11.7646 9.37868C11.7646 9.37868 11.7835 11.1664 11.7835 14.102L36.4235 38.7158L47.6423 27.5003Z" fill="url(#paint0_linear_18008_2665)"/>
<path d="M11.7835 14.085C11.8399 24.6795 11.9529 50.3471 12.0094 63.1433L36.4423 38.7176L11.7835 14.085Z" fill="url(#paint1_linear_18008_2665)"/>
<path d="M66.9931 38.5653L47.6423 27.5003L36.4235 38.7158L49.0919 51.3803L67.0307 40.9364C67.4636 40.6918 67.7084 40.2401 67.7084 39.7509C67.6895 39.2616 67.426 38.81 66.9931 38.5653Z" fill="url(#paint2_linear_18008_2665)"/>
<path d="M11.9904 63.1415C12.0092 67.7143 12.028 70.631 12.028 70.631C12.028 71.1203 12.2915 71.5719 12.7057 71.8166C13.1386 72.0612 13.6468 72.0612 14.0798 71.8166L49.0919 51.3803L36.4423 38.7176L11.9904 63.1415Z" fill="url(#paint3_linear_18008_2665)"/>
<defs>
<linearGradient id="paint0_linear_18008_2665" x1="11.7405" y1="39.9584" x2="67.6823" y2="39.9584" gradientUnits="userSpaceOnUse">
<stop stop-color="#63BE6B"/>
<stop offset="0.506" stop-color="#5BBC6A"/>
<stop offset="1" stop-color="#4AB96A"/>
</linearGradient>
<linearGradient id="paint1_linear_18008_2665" x1="11.7509" y1="39.9723" x2="67.6708" y2="39.9723" gradientUnits="userSpaceOnUse">
<stop stop-color="#3EC6F2"/>
<stop offset="1" stop-color="#45AFE3"/>
</linearGradient>
<linearGradient id="paint2_linear_18008_2665" x1="11.7201" y1="39.9464" x2="67.6614" y2="39.9464" gradientUnits="userSpaceOnUse">
<stop stop-color="#FAA51A"/>
<stop offset="0.387" stop-color="#FAB716"/>
<stop offset="0.741" stop-color="#FAC412"/>
<stop offset="1" stop-color="#FAC80F"/>
</linearGradient>
<linearGradient id="paint3_linear_18008_2665" x1="11.9827" y1="55.3354" x2="49.0787" y2="55.3354" gradientUnits="userSpaceOnUse">
<stop stop-color="#EC3B50"/>
<stop offset="1" stop-color="#E7515B"/>
</linearGradient>
</defs>
</svg>

<svg xmlns="http://www.w3.org/2000/svg" width="80" height="80" fill="none" viewBox="0 0 80 80"><path fill="url(#a)" d="M47.642 27.5 13.816 8.174c-.414-.244-.96-.225-1.374.02a1.38 1.38 0 0 0-.677 1.185s.018 1.787.018 4.723l24.64 24.614z"/><path fill="url(#b)" d="M11.784 14.085c.056 10.595.169 36.262.225 49.058l24.433-24.425z"/><path fill="url(#c)" d="M66.993 38.565 47.643 27.5l-11.22 11.216 12.67 12.664L67.03 40.936c.433-.244.677-.696.677-1.185a1.42 1.42 0 0 0-.715-1.186"/><path fill="url(#d)" d="M11.99 63.142c.02 4.572.038 7.489.038 7.489 0 .49.263.94.678 1.186.433.244.94.244 1.374 0L49.092 51.38l-12.65-12.662z"/><defs><linearGradient id="a" x1="11.741" x2="67.682" y1="39.958" y2="39.958" gradientUnits="userSpaceOnUse"><stop stop-color="#63be6b"/><stop offset=".506" stop-color="#5bbc6a"/><stop offset="1" stop-color="#4ab96a"/></linearGradient><linearGradient id="b" x1="11.751" x2="67.671" y1="39.972" y2="39.972" gradientUnits="userSpaceOnUse"><stop stop-color="#3ec6f2"/><stop offset="1" stop-color="#45afe3"/></linearGradient><linearGradient id="c" x1="11.72" x2="67.661" y1="39.946" y2="39.946" gradientUnits="userSpaceOnUse"><stop stop-color="#faa51a"/><stop offset=".387" stop-color="#fab716"/><stop offset=".741" stop-color="#fac412"/><stop offset="1" stop-color="#fac80f"/></linearGradient><linearGradient id="d" x1="11.983" x2="49.079" y1="55.335" y2="55.335" gradientUnits="userSpaceOnUse"><stop stop-color="#ec3b50"/><stop offset="1" stop-color="#e7515b"/></linearGradient></defs></svg>
